!!!!SEGMENT: pl-stab--27c--001-004_nowakiewicz-kazimierz--missa-in-b-et-incarnatus.krn
!!!cenid: 18xx:3453
!!!COM: Nowakiewicz, Kazimierz
!!!COM-rismid: pe30020309
!!!CDT: <1800->1824
!!!CNT: Polish
!!!OPR: Missa in B
!!!OTL: Et incarnatus
!!!OMV: 004
!!!PDT:
!!!AGN:
!!!SMS-siglum: PL-STAb
!!!SMS-shelfmark: 27c
!!!SMS-shelfwork: 001-004 M
!!!SMS-variant:
!!!SMS-altvar:
!!!NIFC-rismid: 301050705
!!!URL-scan: https://repozytorium.nifc.pl/islandora/object/pl-stab%3A3750/datastream/PDF/view
!!!ONB-nifc: UWAGA: części Mszy: 1. Kyrie, 2. Gloria, 3. Credo, 4. Et incarnatus, 5. Et resurrexit, 6. Sanctus, 7. Pleni sunt, 8. Benedictus, 9. Agnus Dei, 10. Dona nobis
!!!OMD: adagio
!!!key: F
**kern	**kern	**dynam	**kern	**dynam	**kern	**kern	**kern	**kern	**text	**kern	**kern	**kern	**kern
*part11	*part10	*part10	*part9	*part9	*part8	*part7	*part6	*part5	*part5	*part4	*part3	*part2	*part1
*staff11	*staff10	*	*staff9	*	*staff8	*staff7	*staff6	*staff5	*staff5	*staff4	*staff3	*staff2	*staff1
*I"Organo	*I"Violino Secundo	*	*I"Violino Primo	*	*I"Baſso	*I"Tenore	*I"Alto	*I"Canto	*	*I"Cornu Secundo in B.	*I"Cornu Primo in B.	*I"Clarinetto 2do in B	*I"Clarinetto Primo in B.
*I'org	*I'vl 2	*	*I'vl	*	*I'B	*I'T	*I'A	*I'S	*	*I'cor 2 in B|b	*I'cor 1 in B|b	*I'cl 2 i B|b	*I'cl 1 in B|b
*Iorgan	*Ivioln	*	*Ivioln	*	*Ibass	*Itenor	*Ialto	*Isoprn	*	*Icor	*Icor	*Iclars	*Iclars
*ICklav	*ICstr	*	*ICstr	*	*ICvox	*ICvox	*ICvox	*ICvox	*	*ICbras	*ICbras	*ICww	*ICww
*IGcont	*IGripn	*	*IGripn	*	*IGcoro	*IGcoro	*IGcoro	*IGsolo	*	*IGripn	*IGripn	*IGripn	*IGripn
*clefF4	*clefG2	*	*clefG2	*	*clefF4	*clefC4	*clefC3	*clefC1	*	*clefG2	*clefG2	*clefG2	*clefG2
*	*	*	*	*	*	*	*	*	*	*ITrd4c7	*ITrd4c7	*ITrd1c2	*ITrd1c2
*k[b-]	*k[b-]	*	*k[b-]	*	*k[b-]	*k[b-]	*k[b-]	*k[b-]	*	*k[b-]	*k[b-]	*k[b-]	*k[b-]
*F:	*F:	*	*F:	*	*F:	*F:	*F:	*F:	*	*F:	*F:	*F:	*F:
*M3/4	*M3/4	*	*M3/4	*	*M3/4	*M3/4	*M3/4	*M3/4	*	*M3/4	*M3/4	*M3/4	*M3/4
=1	=1	=1	=1	=1	=1	=1	=1	=1	=1	=1	=1	=1	=1
!LO:TX:a:t=P:problem:brak skanu	!LO:TX:a:t=adagio	!LO:DY:a:t=p.:rj	!LO:TX:a:t=Adagio	!	!LO:TX:a:t=Et in Carnatus Tacet	!LO:TX:a:t=Et In carnatus\nTacet	!LO:TX:a:t=Et In Carnatus\nTacet	!LO:TX:a:t=adagio	!	!LO:TX:a:t=Et in\ncar&colon;\nTace	!LO:TX:a:t=Et Incar&colon;\nTacet	!LO:TX:a:t=Et Incarnatus Tacet	!LO:TX:a:t=Et Incarnatus Tacet
2.ryy	16c/LL	p	4.ff\	.	2.ryy	2.ryy	2.ryy	0.r	.	2.ryy	2.ryy	2.ryy	2.ryy
.	16f/	.	.	.	.	.	.	.	.	.	.	.	.
.	16a/	.	.	.	.	.	.	.	.	.	.	.	.
.	16f/JJ	.	.	.	.	.	.	.	.	.	.	.	.
*	*rep	*	*	*	*	*	*	*	*	*	*	*	*
.	16c/LL	.	.	.	.	.	.	.	.	.	.	.	.
.	16f/	.	.	.	.	.	.	.	.	.	.	.	.
.	16a/	.	16cc\LL	.	.	.	.	.	.	.	.	.	.
.	16f/JJ	.	16dd\JJ	.	.	.	.	.	.	.	.	.	.
*	*Xrep	*	*	*	*	*	*	*	*	*	*	*	*
*	*rep	*	*	*	*	*	*	*	*	*	*	*	*
.	16c/LL	.	8cc\L	.	.	.	.	.	.	.	.	.	.
.	16f/	.	.	.	.	.	.	.	.	.	.	.	.
.	16a/	.	16cc\L	.	.	.	.	.	.	.	.	.	.
.	16f/JJ	.	16b-\JJ	.	.	.	.	.	.	.	.	.	.
*	*Xrep	*	*	*	*	*	*	*	*	*	*	*	*
=2	=2	=2	=2	=2	=2	=2	=2	=2	=2	=2	=2	=2	=2
.	.	.	16qqcc/	.	.	.	.	.	.	.	.	.	.
2.ryy	16c/LL	.	8b-/L	.	2.ryy	2.ryy	2.ryy	.	.	2.ryy	2.ryy	2.ryy	2.ryy
.	16e/	.	.	.	.	.	.	.	.	.	.	.	.
.	16g/	.	16b-/L	.	.	.	.	.	.	.	.	.	.
.	16e/JJ	.	16g/JJ	.	.	.	.	.	.	.	.	.	.
.	16e/LL	.	4a/	.	.	.	.	.	.	.	.	.	.
.	16c/	.	.	.	.	.	.	.	.	.	.	.	.
.	16A/	.	.	.	.	.	.	.	.	.	.	.	.
.	16c/JJ	.	.	.	.	.	.	.	.	.	.	.	.
.	16f/LL	.	8r	.	.	.	.	.	.	.	.	.	.
.	16c/	.	.	.	.	.	.	.	.	.	.	.	.
.	16A/	.	8f/	.	.	.	.	.	.	.	.	.	.
.	16c/JJ	.	.	.	.	.	.	.	.	.	.	.	.
=3	=3	=3	=3	=3	=3	=3	=3	=3	=3	=3	=3	=3	=3
2.ryy	16B-/LL	.	4.dd\	.	2.ryy	2.ryy	2.ryy	.	.	2.ryy	2.ryy	2.ryy	2.ryy
.	16d/	.	.	.	.	.	.	.	.	.	.	.	.
.	16f/	.	.	.	.	.	.	.	.	.	.	.	.
.	16d/JJ	.	.	.	.	.	.	.	.	.	.	.	.
*	*rep	*	*	*	*	*	*	*	*	*	*	*	*
.	16B-/LL	.	.	.	.	.	.	.	.	.	.	.	.
.	16d/	.	.	.	.	.	.	.	.	.	.	.	.
.	16f/	.	8b-\L	.	.	.	.	.	.	.	.	.	.
.	16d/JJ	.	.	.	.	.	.	.	.	.	.	.	.
*	*Xrep	*	*	*	*	*	*	*	*	*	*	*	*
*	*rep	*	*	*	*	*	*	*	*	*	*	*	*
.	16B-/LL	.	8ff\	.	.	.	.	.	.	.	.	.	.
.	16d/	.	.	.	.	.	.	.	.	.	.	.	.
.	16f/	.	8dd\J	.	.	.	.	.	.	.	.	.	.
.	16d/JJ	.	.	.	.	.	.	.	.	.	.	.	.
*	*Xrep	*	*	*	*	*	*	*	*	*	*	*	*
!	!LO:LB:g=original	!	!	!	!	!	!	!	!	!	!	!	!
=4	=4	=4	=4	=4	=4	=4	=4	=4	=4	=4	=4	=4	=4
2.ryy	16A/LL	.	16dd\LL	.	2.ryy	2.ryy	2.ryy	.	.	2.ryy	2.ryy	2.ryy	2.ryy
.	16c/	.	16cc\	.	.	.	.	.	.	.	.	.	.
.	16f/	.	16bn\	.	.	.	.	.	.	.	.	.	.
.	16c/JJ	.	16cc\JJ	.	.	.	.	.	.	.	.	.	.
*	*rep	*	*	*	*	*	*	*	*	*	*	*	*
.	16A/LL	.	4cc\	.	.	.	.	.	.	.	.	.	.
.	16c/	.	.	.	.	.	.	.	.	.	.	.	.
.	16f/	.	.	.	.	.	.	.	.	.	.	.	.
.	16c/JJ	.	.	.	.	.	.	.	.	.	.	.	.
*	*Xrep	*	*	*	*	*	*	*	*	*	*	*	*
*	*rep	*	*	*	*	*	*	*	*	*	*	*	*
.	16A/LL	.	8r	.	.	.	.	.	.	.	.	.	.
.	16c/	.	.	.	.	.	.	.	.	.	.	.	.
.	16f/	.	8cc\	.	.	.	.	.	.	.	.	.	.
.	16c/JJ	.	.	.	.	.	.	.	.	.	.	.	.
*	*Xrep	*	*	*	*	*	*	*	*	*	*	*	*
!	!	!	!LO:LB:g=original	!	!	!	!	!	!	!	!	!	!
=5	=5	=5	=5	=5	=5	=5	=5	=5	=5	=5	=5	=5	=5
2.ryy	16d/LL	.	8cc\L	.	2.ryy	2.ryy	2.ryy	0.r	.	2.ryy	2.ryy	2.ryy	2.ryy
.	16f/	.	.	.	.	.	.	.	.	.	.	.	.
.	16g/	.	8bn\J	.	.	.	.	.	.	.	.	.	.
.	16f/JJ	.	.	.	.	.	.	.	.	.	.	.	.
*	*rep	*	*	*	*	*	*	*	*	*	*	*	*
.	16d/LL	.	4b\	.	.	.	.	.	.	.	.	.	.
.	16f/	.	.	.	.	.	.	.	.	.	.	.	.
.	16g/	.	.	.	.	.	.	.	.	.	.	.	.
.	16f/JJ	.	.	.	.	.	.	.	.	.	.	.	.
*	*Xrep	*	*	*	*	*	*	*	*	*	*	*	*
*	*rep	*	*	*	*	*	*	*	*	*	*	*	*
.	16d/LL	.	8r	.	.	.	.	.	.	.	.	.	.
.	16f/	.	.	.	.	.	.	.	.	.	.	.	.
.	16g/	.	8b\	.	.	.	.	.	.	.	.	.	.
.	16f/JJ	.	.	.	.	.	.	.	.	.	.	.	.
*	*Xrep	*	*	*	*	*	*	*	*	*	*	*	*
=6	=6	=6	=6	=6	=6	=6	=6	=6	=6	=6	=6	=6	=6
2.ryy	16c/LL	.	8gg\L	.	2.ryy	2.ryy	2.ryy	.	.	2.ryy	2.ryy	2.ryy	2.ryy
.	16e/	.	.	.	.	.	.	.	.	.	.	.	.
.	16g/	.	8b-X\J	.	.	.	.	.	.	.	.	.	.
.	16e/JJ	.	.	.	.	.	.	.	.	.	.	.	.
*	*rep	*	*	*	*	*	*	*	*	*	*	*	*
.	16c/LL	.	4.b-\	.	.	.	.	.	.	.	.	.	.
.	16e/	.	.	.	.	.	.	.	.	.	.	.	.
.	16g/	.	.	.	.	.	.	.	.	.	.	.	.
.	16e/JJ	.	.	.	.	.	.	.	.	.	.	.	.
*	*Xrep	*	*	*	*	*	*	*	*	*	*	*	*
.	16f/LL	.	.	.	.	.	.	.	.	.	.	.	.
.	16c/	.	.	.	.	.	.	.	.	.	.	.	.
.	16A/	.	8a/	.	.	.	.	.	.	.	.	.	.
.	16c/JJ	.	.	.	.	.	.	.	.	.	.	.	.
=7	=7	=7	=7	=7	=7	=7	=7	=7	=7	=7	=7	=7	=7
2.ryy	16d/LL	.	8g/	.	2.ryy	2.ryy	2.ryy	.	.	2.ryy	2.ryy	2.ryy	2.ryy
.	16B-/	.	.	.	.	.	.	.	.	.	.	.	.
.	16G/	.	4dd\	.	.	.	.	.	.	.	.	.	.
.	16B-/JJ	.	.	.	.	.	.	.	.	.	.	.	.
.	16d/LL	.	.	.	.	.	.	.	.	.	.	.	.
.	16G/	.	.	.	.	.	.	.	.	.	.	.	.
.	16G/	.	8b-\L	.	.	.	.	.	.	.	.	.	.
.	16d/JJ	.	.	.	.	.	.	.	.	.	.	.	.
*	*rep	*	*	*	*	*	*	*	*	*	*	*	*
.	16d/LL	.	8g\	.	.	.	.	.	.	.	.	.	.
.	16G/	.	.	.	.	.	.	.	.	.	.	.	.
.	16G/	.	8f\J	.	.	.	.	.	.	.	.	.	.
.	16d/JJ	.	.	.	.	.	.	.	.	.	.	.	.
*	*Xrep	*	*	*	*	*	*	*	*	*	*	*	*
=8	=8	=8	=8	=8	=8	=8	=8	=8	=8	=8	=8	=8	=8
.	.	.	8qqg/	.	.	.	.	.	.	.	.	.	.
2.ryy	16B-/LL	.	4f/	.	2.ryy	2.ryy	2.ryy	.	.	2.ryy	2.ryy	2.ryy	2.ryy
.	16d/	.	.	.	.	.	.	.	.	.	.	.	.
.	16B-/	.	.	.	.	.	.	.	.	.	.	.	.
.	16d/JJ	.	.	.	.	.	.	.	.	.	.	.	.
.	4c/	.	4e/	.	.	.	.	.	.	.	.	.	.
.	4r	.	4r	.	.	.	.	.	.	.	.	.	.
!	!LO:LB:g=original	!	!	!	!	!	!	!	!	!	!	!	!
=9	=9	=9	=9	=9	=9	=9	=9	=9	=9	=9	=9	=9	=9
!	!	!	!	!LO:DY:a:t=p.:rj	!	!	!	!LO:TX:b:i:t=Solo:rj	!	!	!	!	!
2.ryy	16c/LL	.	4.ff\	p	2.ryy	2.ryy	2.ryy	4.ff\	Et	2.ryy	2.ryy	2.ryy	2.ryy
.	16f/	.	.	.	.	.	.	.	.	.	.	.	.
.	16a/	.	.	.	.	.	.	.	.	.	.	.	.
.	16f/JJ	.	.	.	.	.	.	.	.	.	.	.	.
*	*rep	*	*	*	*	*	*	*	*	*	*	*	*
.	16c/LL	.	.	.	.	.	.	.	.	.	.	.	.
.	16f/	.	.	.	.	.	.	.	.	.	.	.	.
.	16a/	.	16cc\LL	.	.	.	.	16cc\LL	.	.	.	.	.
.	16f/JJ	.	16dd\JJ	.	.	.	.	16dd\JJ	.	.	.	.	.
*	*Xrep	*	*	*	*	*	*	*	*	*	*	*	*
*	*rep	*	*	*	*	*	*	*	*	*	*	*	*
.	16c/LL	.	8cc\L	.	.	.	.	8cc\	In-	.	.	.	.
.	16f/	.	.	.	.	.	.	.	.	.	.	.	.
.	16a/	.	16cc\L	.	.	.	.	16cc\LL	-car-	.	.	.	.
.	16f/JJ	.	16a\JJ	.	.	.	.	16a\JJ	.	.	.	.	.
*	*Xrep	*	*	*	*	*	*	*	*	*	*	*	*
=10	=10	=10	=10	=10	=10	=10	=10	=10	=10	=10	=10	=10	=10
.	.	.	16qqcc/	.	.	.	.	8qqcc/	.	.	.	.	.
2.ryy	16c/LL	.	8b-/L	.	2.ryy	2.ryy	2.ryy	8b-\	-na-	2.ryy	2.ryy	2.ryy	2.ryy
.	16e/	.	.	.	.	.	.	.	.	.	.	.	.
.	16g/	.	16b-/L	.	.	.	.	16b-\LL	-tus	.	.	.	.
.	16e/JJ	.	16g/JJ	.	.	.	.	16g\JJ	.	.	.	.	.
!	!	!	!	!	!	!	!	!LO:LB:g=original	!	!	!	!	!
=-	=-	=-	=-	=-	=-	=-	=-	=-	=-	=-	=-	=-	=-
.	16f/LL	.	4a/	.	.	.	.	4a\	est	.	.	.	.
.	16c/	.	.	.	.	.	.	.	.	.	.	.	.
.	16A/	.	.	.	.	.	.	.	.	.	.	.	.
.	16c/JJ	.	.	.	.	.	.	.	.	.	.	.	.
*	*rep	*	*	*	*	*	*	*	*	*	*	*	*
.	16f/LL	.	8r	.	.	.	.	8r	.	.	.	.	.
.	16c/	.	.	.	.	.	.	.	.	.	.	.	.
.	16A/	.	8f/	.	.	.	.	8f/	de	.	.	.	.
.	16c/JJ	.	.	.	.	.	.	.	.	.	.	.	.
*	*Xrep	*	*	*	*	*	*	*	*	*	*	*	*
!	!	!	!LO:LB:g=original	!	!	!	!	!	!	!	!	!	!
=11	=11	=11	=11	=11	=11	=11	=11	=11	=11	=11	=11	=11	=11
2.ryy	16B-/LL	.	4.dd\	.	2.ryy	2.ryy	2.ryy	4.dd\	Spi-	2.ryy	2.ryy	2.ryy	2.ryy
.	16d/	.	.	.	.	.	.	.	.	.	.	.	.
.	16f/	.	.	.	.	.	.	.	.	.	.	.	.
.	16d/JJ	.	.	.	.	.	.	.	.	.	.	.	.
*	*rep	*	*	*	*	*	*	*	*	*	*	*	*
.	16B-/LL	.	.	.	.	.	.	.	.	.	.	.	.
.	16d/	.	.	.	.	.	.	.	.	.	.	.	.
.	16f/	.	8b-\	.	.	.	.	8b-\	.	.	.	.	.
.	16d/JJ	.	.	.	.	.	.	.	.	.	.	.	.
*	*Xrep	*	*	*	*	*	*	*	*	*	*	*	*
*	*rep	*	*	*	*	*	*	*	*	*	*	*	*
.	16B-/LL	.	8ff\L	.	.	.	.	8ff\	-ri-	.	.	.	.
.	16d/	.	.	.	.	.	.	.	.	.	.	.	.
.	16f/	.	8dd\J	.	.	.	.	8dd\	-tu	.	.	.	.
.	16d/JJ	.	.	.	.	.	.	.	.	.	.	.	.
*	*Xrep	*	*	*	*	*	*	*	*	*	*	*	*
=12	=12	=12	=12	=12	=12	=12	=12	=12	=12	=12	=12	=12	=12
2.ryy	16A/LL	.	16dd\LL	.	2.ryy	2.ryy	2.ryy	16dd\LL	San-	2.ryy	2.ryy	2.ryy	2.ryy
.	16c/	.	16cc\	.	.	.	.	16cc\	.	.	.	.	.
.	16f/	.	16bn\	.	.	.	.	16bn\	.	.	.	.	.
.	16c/JJ	.	16cc\JJ	.	.	.	.	16cc\JJ	.	.	.	.	.
*	*rep	*	*	*	*	*	*	*	*	*	*	*	*
.	16A/LL	.	4cc\	.	.	.	.	4cc\	-cto	.	.	.	.
.	16c/	.	.	.	.	.	.	.	.	.	.	.	.
.	16f/	.	.	.	.	.	.	.	.	.	.	.	.
.	16c/JJ	.	.	.	.	.	.	.	.	.	.	.	.
*	*Xrep	*	*	*	*	*	*	*	*	*	*	*	*
*	*rep	*	*	*	*	*	*	*	*	*	*	*	*
.	16A/LL	.	8r	.	.	.	.	4r	.	.	.	.	.
.	16c/	.	.	.	.	.	.	.	.	.	.	.	.
.	16f/	.	8cc\	.	.	.	.	.	.	.	.	.	.
.	16c/JJ	.	.	.	.	.	.	.	.	.	.	.	.
*	*Xrep	*	*	*	*	*	*	*	*	*	*	*	*
=13	=13	=13	=13	=13	=13	=13	=13	=13	=13	=13	=13	=13	=13
2.ryy	16G/LL	.	8cc\L	.	2.ryy	2.ryy	2.ryy	8cc\	Na-	2.ryy	2.ryy	2.ryy	2.ryy
.	16d/	.	.	.	.	.	.	.	.	.	.	.	.
.	16f/	.	8bn\J	.	.	.	.	8bn\	-tus	.	.	.	.
.	16d/JJ	.	.	.	.	.	.	.	.	.	.	.	.
*	*rep	*	*	*	*	*	*	*	*	*	*	*	*
.	16G/LL	.	4.b\	.	.	.	.	4.b\	ex	.	.	.	.
.	16d/	.	.	.	.	.	.	.	.	.	.	.	.
.	16f/	.	.	.	.	.	.	.	.	.	.	.	.
.	16d/JJ	.	.	.	.	.	.	.	.	.	.	.	.
*	*Xrep	*	*	*	*	*	*	*	*	*	*	*	*
*	*rep	*	*	*	*	*	*	*	*	*	*	*	*
.	16G/LL	.	.	.	.	.	.	.	.	.	.	.	.
.	16d/	.	.	.	.	.	.	.	.	.	.	.	.
.	16f/	.	8dd\	.	.	.	.	8dd\	Ma-	.	.	.	.
.	16d/JJ	.	.	.	.	.	.	.	.	.	.	.	.
*	*Xrep	*	*	*	*	*	*	*	*	*	*	*	*
!	!LO:LB:g=original	!	!	!	!	!	!	!	!	!	!	!	!
=14	=14	=14	=14	=14	=14	=14	=14	=14	=14	=14	=14	=14	=14
2.ryy	16G/LL	.	8dd\L	.	2.ryy	2.ryy	2.ryy	8dd\L	-ri-	2.ryy	2.ryy	2.ryy	2.ryy
.	16e/	.	.	.	.	.	.	.	.	.	.	.	.
.	16g/	.	8cc\J	.	.	.	.	8cc\J	.	.	.	.	.
.	16e/JJ	.	.	.	.	.	.	.	.	.	.	.	.
*	*rep	*	*	*	*	*	*	*	*	*	*	*	*
.	16G/LL	.	4.cc\	.	.	.	.	4.cc\	-a	.	.	.	.
.	16e/	.	.	.	.	.	.	.	.	.	.	.	.
.	16g/	.	.	.	.	.	.	.	.	.	.	.	.
.	16e/JJ	.	.	.	.	.	.	.	.	.	.	.	.
*	*Xrep	*	*	*	*	*	*	*	*	*	*	*	*
*	*rep	*	*	*	*	*	*	*	*	*	*	*	*
.	16G/LL	.	.	.	.	.	.	.	.	.	.	.	.
.	16e/	.	.	.	.	.	.	.	.	.	.	.	.
.	16g/	.	8ee\	.	.	.	.	8ee\	ma-	.	.	.	.
.	16e/JJ	.	.	.	.	.	.	.	.	.	.	.	.
*	*Xrep	*	*	*	*	*	*	*	*	*	*	*	*
=15	=15	=15	=15	=15	=15	=15	=15	=15	=15	=15	=15	=15	=15
2.ryy	16d/LL	.	16ee\LL	.	2.ryy	2.ryy	2.ryy	16ee\LL	-ri-	2.ryy	2.ryy	2.ryy	2.ryy
.	16f/	.	16dd\	.	.	.	.	16dd\JJ	.	.	.	.	.
.	16a/	.	16cc#X\	.	.	.	.	16cc#X\LL	-a	.	.	.	.
.	16f/JJ	.	16dd\JJ	.	.	.	.	16ee\JJ	.	.	.	.	.
*	*rep	*	*	*	*	*	*	*	*	*	*	*	*
.	16d/LL	.	8aa\L	.	.	.	.	8aa\L	Vir-	.	.	.	.
.	16f/	.	.	.	.	.	.	.	.	.	.	.	.
.	16a/	.	8ff\J	.	.	.	.	8ff\J	.	.	.	.	.
.	16f/JJ	.	.	.	.	.	.	.	.	.	.	.	.
*	*Xrep	*	*	*	*	*	*	*	*	*	*	*	*
.	16d/LL	.	8dd\L	.	.	.	.	8dd\L	-gi	.	.	.	.
.	16A/	.	.	.	.	.	.	.	.	.	.	.	.
.	16d/	.	8ccn\J	.	.	.	.	8ccn\J	.	.	.	.	.
.	16d/JJ	.	.	.	.	.	.	.	.	.	.	.	.
!	!	!	!	!	!	!	!	!LO:LB:g=original	!	!	!	!	!
=16	=16	=16	=16	=16	=16	=16	=16	=16	=16	=16	=16	=16	=16
2.ryy	8d/L	.	8bn\	.	2.ryy	2.ryy	2.ryy	8bn\	ne	2.ryy	2.ryy	2.ryy	2.ryy
.	8d/	.	8r	.	.	.	.	8r	.	.	.	.	.
.	8d/	.	16b\LL	.	.	.	.	16b\LL	et	.	.	.	.
.	.	.	16cc\	.	.	.	.	16cc\	.	.	.	.	.
.	8d/	.	16b\	.	.	.	.	16b\	.	.	.	.	.
.	.	.	16cc\JJ	.	.	.	.	16cc\JJ	.	.	.	.	.
!	!	!	!LO:LB:g=original	!	!	!	!	!	!	!	!	!	!
=-	=-	=-	=-	=-	=-	=-	=-	=-	=-	=-	=-	=-	=-
.	8d/	.	16dd\LL	.	.	.	.	16dd\LL	ho-	.	.	.	.
.	.	.	16ee\	.	.	.	.	16ee\	.	.	.	.	.
.	8d/J	.	16dd\	.	.	.	.	16dd\	.	.	.	.	.
.	.	.	16ee\JJ	.	.	.	.	16ee\JJ	.	.	.	.	.
=17	=17	=17	=17	=17	=17	=17	=17	=17	=17	=17	=17	=17	=17
*	*tremolo	*	*	*	*	*	*	*	*	*	*	*	*
2.ryy	8g/L	.	8ff\	.	2.ryy	2.ryy	2.ryy	8ff\	-mo	2.ryy	2.ryy	2.ryy	2.ryy
.	8g/	.	8r	.	.	.	.	8r	.	.	.	.	.
.	8g/	.	16ff\LL	.	.	.	.	16ff\LL	ho-	.	.	.	.
.	.	.	16ee\	.	.	.	.	16ee\	.	.	.	.	.
.	8g/	.	16dd\	.	.	.	.	16dd\	.	.	.	.	.
.	.	.	16cc\JJ	.	.	.	.	16cc\JJ	.	.	.	.	.
.	8g/	.	16bn/LL	.	.	.	.	16bn\LL	.	.	.	.	.
.	.	.	16a/	.	.	.	.	16a\	.	.	.	.	.
.	8g/J	.	16g/	.	.	.	.	16g\	.	.	.	.	.
.	.	.	16f/JJ	.	.	.	.	16f\JJ	.	.	.	.	.
=18	=18	=18	=18	=18	=18	=18	=18	=18	=18	=18	=18	=18	=18
2.ryy	8g/L	.	16e/LL	.	2.ryy	2.ryy	2.ryy	16e\LL	.	2.ryy	2.ryy	2.ryy	2.ryy
.	.	.	16g/	.	.	.	.	16g\	.	.	.	.	.
.	8g/	.	16cc/	.	.	.	.	16b-\	.	.	.	.	.
.	.	.	16ee/JJ	.	.	.	.	16ee\JJ	.	.	.	.	.
.	8g/	.	8gg\L	.	.	.	.	8gg\L	.	.	.	.	.
.	8g/	.	8ee\	.	.	.	.	8ee\	.	.	.	.	.
.	8g/	.	8cc\	.	.	.	.	8cc\	-mo	.	.	.	.
.	8g/J	.	8b-X\J	.	.	.	.	8b-X\J	.	.	.	.	.
*	*Xtremolo	*	*	*	*	*	*	*	*	*	*	*	*
=19	=19	=19	=19	=19	=19	=19	=19	=19	=19	=19	=19	=19	=19
2.ryy	8c/L	.	16a\LL	.	2.ryy	2.ryy	2.ryy	16a\LL	fa-	2.ryy	2.ryy	2.ryy	2.ryy
.	.	.	16dd\	.	.	.	.	16dd\	.	.	.	.	.
.	8a/J	.	16cc#X\	.	.	.	.	16cc#X\	.	.	.	.	.
.	.	.	16ee\JJ	.	.	.	.	16ee\JJ	.	.	.	.	.
.	8a/L	.	16dd\LL	.	.	.	.	16dd\LL	.	.	.	.	.
.	.	.	16ff\	.	.	.	.	16ff\	.	.	.	.	.
.	8a/	.	16ee\	.	.	.	.	16ee\	.	.	.	.	.
.	.	.	16gg\JJ	.	.	.	.	16gg\JJ	.	.	.	.	.
.	8a/	.	16ff\LL	.	.	.	.	16ff\LL	.	.	.	.	.
.	.	.	16gg\JJ	.	.	.	.	16aa\JJ	.	.	.	.	.
.	8a/J	.	32gg\LLL	.	.	.	.	32gg\LLL	.	.	.	.	.
.	.	.	32ff\	.	.	.	.	32ff\	.	.	.	.	.
.	.	.	32ee\	.	.	.	.	32ee\	.	.	.	.	.
.	.	.	32dd\JJJ	.	.	.	.	32dd\JJJ	.	.	.	.	.
!	!	!	!	!	!	!	!	!LO:LB:g=original	!	!	!	!	!
=20	=20	=20	=20	=20	=20	=20	=20	=20	=20	=20	=20	=20	=20
2.ryy	16g\LL	.	8.ccn\L	.	2.ryy	2.ryy	2.ryy	8ccn\L	.	2.ryy	2.ryy	2.ryy	2.ryy
.	16cc\	.	.	.	.	.	.	.	.	.	.	.	.
.	16cc\	.	.	.	.	.	.	8dd\J	.	.	.	.	.
.	16cc\JJ	.	16dd\Jk	.	.	.	.	.	.	.	.	.	.
*	*tremolo	*	*2\right	*	*	*	*	*	*	*	*	*	*
.	16cc\LL	.	2ddT\	.	.	.	.	4.dd\	.	.	.	.	.
.	16cc\	.	.	.	.	.	.	.	.	.	.	.	.
.	16cc\	.	.	.	.	.	.	.	.	.	.	.	.
.	16cc\JJ	.	.	.	.	.	.	.	.	.	.	.	.
.	16bn\LL	.	.	.	.	.	.	.	.	.	.	.	.
.	16b\	.	.	.	.	.	.	.	.	.	.	.	.
.	16b\	.	.	.	.	.	.	8dd\	-ctus	.	.	.	.
.	16b\JJ	.	.	.	.	.	.	.	.	.	.	.	.
*	*Xtremolo	*	*	*	*	*	*	*	*	*	*	*	*
!	!LO:LB:g=original	!	!	!	!	!	!	!	!	!	!	!	!
=21	=21	=21	=21	=21	=21	=21	=21	=21	=21	=21	=21	=21	=21
2.ryy	8cc\L	.	4cc\	.	2.ryy	2.ryy	2.ryy	4cc\	est	2.ryy	2.ryy	2.ryy	2.ryy
.	8g\	.	.	.	.	.	.	.	.	.	.	.	.
.	8g\	.	8r	.	.	.	.	4r	.	.	.	.	.
.	8g\	.	8gg\L	.	.	.	.	.	.	.	.	.	.
.	8g\	.	8gg\	.	.	.	.	4r	.	.	.	.	.
.	8g\J	.	8gg\J	.	.	.	.	.	.	.	.	.	.
!	!	!	!LO:LB:g=original	!	!	!	!	!	!	!	!	!	!
=22	=22	=22	=22	=22	=22	=22	=22	=22	=22	=22	=22	=22	=22
.	.	.	16qqgg/	.	.	.	.	.	.	.	.	.	.
*	*tremolo	*	*	*	*	*	*	*	*	*	*	*	*
2.ryy	16g/LL	.	8.ff\L	.	2.ryy	2.ryy	2.ryy	4r	.	2.ryy	2.ryy	2.ryy	2.ryy
.	16g/	.	.	.	.	.	.	.	.	.	.	.	.
.	16g/	.	.	.	.	.	.	.	.	.	.	.	.
.	16g/	.	16ee\Jk	.	.	.	.	.	.	.	.	.	.
.	16g/	.	8dd\L	.	.	.	.	8r	.	.	.	.	.
.	16g/	.	.	.	.	.	.	.	.	.	.	.	.
.	16g/	.	8dd\	.	.	.	.	8g\	et	.	.	.	.
.	16g/	.	.	.	.	.	.	.	.	.	.	.	.
.	16g/	.	8ee\	.	.	.	.	8g\	ho-	.	.	.	.
.	16g/	.	.	.	.	.	.	.	.	.	.	.	.
.	16g/	.	8ff\J	.	.	.	.	8ff\	-mo	.	.	.	.
.	16g/JJ	.	.	.	.	.	.	.	.	.	.	.	.
=23	=23	=23	=23	=23	=23	=23	=23	=23	=23	=23	=23	=23	=23
2.ryy	16g/LL	.	16ff\LL	.	2.ryy	2.ryy	2.ryy	16ff\LL	fa-	2.ryy	2.ryy	2.ryy	2.ryy
.	16g/	.	16ee\	.	.	.	.	16ee\JJ	.	.	.	.	.
.	16g/	.	16aa\	.	.	.	.	16aa\LL	-ctus	.	.	.	.
.	16g/	.	16gg\JJ	.	.	.	.	16gg\JJ	.	.	.	.	.
.	16g/	.	8gg\L	.	.	.	.	4gg\	est	.	.	.	.
.	16g/	.	.	.	.	.	.	.	.	.	.	.	.
.	16g/	.	8ccc\	.	.	.	.	.	.	.	.	.	.
.	16g/	.	.	.	.	.	.	.	.	.	.	.	.
.	16g/	.	8gg\	.	.	.	.	4r	.	.	.	.	.
.	16g/	.	.	.	.	.	.	.	.	.	.	.	.
.	16g/	.	8gg\J	.	.	.	.	.	.	.	.	.	.
.	16g/JJ	.	.	.	.	.	.	.	.	.	.	.	.
=24	=24	=24	=24	=24	=24	=24	=24	=24	=24	=24	=24	=24	=24
2.ryy	16g/LL	.	8.ff\L	.	2.ryy	2.ryy	2.ryy	4r	.	2.ryy	2.ryy	2.ryy	2.ryy
.	16g/	.	.	.	.	.	.	.	.	.	.	.	.
.	16g/	.	.	.	.	.	.	.	.	.	.	.	.
.	16g/	.	16ee\Jk	.	.	.	.	.	.	.	.	.	.
.	16g/	.	8dd\L	.	.	.	.	8r	.	.	.	.	.
.	16g/	.	.	.	.	.	.	.	.	.	.	.	.
.	16g/	.	8dd\	.	.	.	.	8g\	et	.	.	.	.
.	16g/	.	.	.	.	.	.	.	.	.	.	.	.
.	16g/	.	8ee\	.	.	.	.	8g\	ho-	.	.	.	.
.	16g/	.	.	.	.	.	.	.	.	.	.	.	.
.	16g/	.	8ff\J	.	.	.	.	8ff\	-mo	.	.	.	.
.	16g/JJ	.	.	.	.	.	.	.	.	.	.	.	.
=25	=25	=25	=25	=25	=25	=25	=25	=25	=25	=25	=25	=25	=25
2.ryy	16g/LL	.	16ff\LL	.	2.ryy	2.ryy	2.ryy	16ff\LL	fa-	2.ryy	2.ryy	2.ryy	2.ryy
.	16g/	.	16ee\	.	.	.	.	16ee\	.	.	.	.	.
.	16g/	.	16dd\	.	.	.	.	16dd\	.	.	.	.	.
.	16g/	.	16cc\JJ	.	.	.	.	16cc\JJ	.	.	.	.	.
.	16g/	.	16bn\LL	.	.	.	.	16bn\LL	.	.	.	.	.
.	16g/	.	16cc\	.	.	.	.	16cc\	.	.	.	.	.
.	16g/	.	16dd\	.	.	.	.	16dd\	.	.	.	.	.
.	16g/	.	16cc\JJ	.	.	.	.	16cc\JJ	.	.	.	.	.
.	16g/	.	16cc\LL	.	.	.	.	16cc\LL	.	.	.	.	.
.	16g/	.	16b-X\	.	.	.	.	16b-X\	.	.	.	.	.
.	16g/	.	16a\	.	.	.	.	16a\	.	.	.	.	.
.	16g/JJ	.	16b-\JJ	.	.	.	.	16b-\JJ	.	.	.	.	.
!	!	!	!	!	!	!	!	!LO:LB:g=original	!	!	!	!	!
=26	=26	=26	=26	=26	=26	=26	=26	=26	=26	=26	=26	=26	=26
2.ryy	16a/LL	.	8a\L	.	2.ryy	2.ryy	2.ryy	8a\L	.	2.ryy	2.ryy	2.ryy	2.ryy
.	16a/	.	.	.	.	.	.	.	.	.	.	.	.
!	!	!	!LO:SIC:v:s=16bn\L	!	!	!	!	!	!	!	!	!	!
.	16a/	.	16b-\L	.	.	.	.	16bn\L	.	.	.	.	.
.	16a/	.	16cc\JJ	.	.	.	.	16cc\JJ	.	.	.	.	.
.	16a/	.	16dd\LL	.	.	.	.	16dd\LL	.	.	.	.	.
.	16a/	.	16ee\	.	.	.	.	16ee\	.	.	.	.	.
.	16a/	.	16ff\	.	.	.	.	16ff\	.	.	.	.	.
.	16a/	.	16gg\JJ	.	.	.	.	16gg\JJ	.	.	.	.	.
.	16a/	.	16aa\LL	.	.	.	.	16aa\LL	.	.	.	.	.
.	16a/	.	16ff\	.	.	.	.	16ff\	.	.	.	.	.
.	16a/	.	16ee\	.	.	.	.	16ee\	.	.	.	.	.
!	!	!	!LO:TX:b:i:t=V&colon;S&colon;	!	!	!	!	!	!	!	!	!	!
.	16a/JJ	.	16dd\JJ	.	.	.	.	16dd\JJ	.	.	.	.	.
*	*Xtremolo	*	*	*	*	*	*	*	*	*	*	*	*
!	!	!	!LO:PB:g=original	!	!	!	!	!	!	!	!	!	!
=27	=27	=27	=27	=27	=27	=27	=27	=27	=27	=27	=27	=27	=27
2.ryy	8g\L	.	8cc\L	.	2.ryy	2.ryy	2.ryy	8.cc\L	.	2.ryy	2.ryy	2.ryy	2.ryy
.	8cc\	.	32cc\LL	.	.	.	.	.	.	.	.	.	.
.	.	.	32dd\	.	.	.	.	.	.	.	.	.	.
.	.	.	32cc\	.	.	.	.	16dd\Jk	.	.	.	.	.
.	.	.	32dd\JJJ	.	.	.	.	.	.	.	.	.	.
.	8cc\	.	2dd\	.	.	.	.	4.dd\	.	.	.	.	.
.	8cc\	.	.	.	.	.	.	.	.	.	.	.	.
.	8bn\	.	.	.	.	.	.	.	.	.	.	.	.
.	8b\J	.	.	.	.	.	.	8dd\	-ctus	.	.	.	.
=28	=28	=28	=28	=28	=28	=28	=28	=28	=28	=28	=28	=28	=28
!	!	!	!	!LO:DY:a:t=for	!	!	!	!	!	!	!	!	!
2.ryy	8cc\L	.	4cc\	f	2.ryy	2.ryy	2.ryy	4cc\	est	2.ryy	2.ryy	2.ryy	2.ryy
.	8g\	.	.	.	.	.	.	.	.	.	.	.	.
.	8g\	.	4r	.	.	.	.	4r	.	.	.	.	.
.	8g\	.	.	.	.	.	.	.	.	.	.	.	.
.	8g\	.	4r	.	.	.	.	4r	.	.	.	.	.
.	8g\J	.	.	.	.	.	.	.	.	.	.	.	.
=29	=29	=29	=29	=29	=29	=29	=29	=29	=29	=29	=29	=29	=29
.	.	.	16qqee/LL	.	.	.	.	.	.	.	.	.	.
.	.	.	16qqgg/JJ	.	.	.	.	.	.	.	.	.	.
2.ryy	16d/LL	.	4.ff\	.	2.ryy	2.ryy	2.ryy	0.r	.	2.ryy	2.ryy	2.ryy	2.ryy
.	16f/	.	.	.	.	.	.	.	.	.	.	.	.
.	16g/	.	.	.	.	.	.	.	.	.	.	.	.
.	16f/JJ	.	.	.	.	.	.	.	.	.	.	.	.
*	*rep	*	*	*	*	*	*	*	*	*	*	*	*
.	16d/LL	.	.	.	.	.	.	.	.	.	.	.	.
.	16f/	.	.	.	.	.	.	.	.	.	.	.	.
.	16g/	.	8dd\	.	.	.	.	.	.	.	.	.	.
.	16f/JJ	.	.	.	.	.	.	.	.	.	.	.	.
*	*Xrep	*	*	*	*	*	*	*	*	*	*	*	*
*	*rep	*	*	*	*	*	*	*	*	*	*	*	*
.	16d/LL	.	16cc/LL	.	.	.	.	.	.	.	.	.	.
.	16f/	.	16bn/	.	.	.	.	.	.	.	.	.	.
.	16g/	.	16a/	.	.	.	.	.	.	.	.	.	.
.	16f/JJ	.	16g/JJ	.	.	.	.	.	.	.	.	.	.
*	*Xrep	*	*	*	*	*	*	*	*	*	*	*	*
=30	=30	=30	=30	=30	=30	=30	=30	=30	=30	=30	=30	=30	=30
2.ryy	16c/LL	.	8cc\L	.	2.ryy	2.ryy	2.ryy	.	.	2.ryy	2.ryy	2.ryy	2.ryy
.	16e/	.	.	.	.	.	.	.	.	.	.	.	.
.	16g/	.	8g\J	.	.	.	.	.	.	.	.	.	.
.	16e/JJ	.	.	.	.	.	.	.	.	.	.	.	.
=-	=-	=-	=-	=-	=-	=-	=-	=-	=-	=-	=-	=-	=-
.	16c/LL	.	8r	.	.	.	.	.	.	.	.	.	.
.	16e/	.	.	.	.	.	.	.	.	.	.	.	.
.	16g/	.	8g/L	.	.	.	.	.	.	.	.	.	.
.	16e/JJ	.	.	.	.	.	.	.	.	.	.	.	.
*	*rep	*	*	*	*	*	*	*	*	*	*	*	*
.	16c/LL	.	8cc/	.	.	.	.	.	.	.	.	.	.
.	16e/	.	.	.	.	.	.	.	.	.	.	.	.
.	16g/	.	8ee/J	.	.	.	.	.	.	.	.	.	.
.	16e/JJ	.	.	.	.	.	.	.	.	.	.	.	.
*	*Xrep	*	*	*	*	*	*	*	*	*	*	*	*
=31	=31	=31	=31	=31	=31	=31	=31	=31	=31	=31	=31	=31	=31
.	.	.	16qqee/LL	.	.	.	.	.	.	.	.	.	.
.	.	.	16qqgg/JJ	.	.	.	.	.	.	.	.	.	.
2.ryy	16B-/LL	.	4.ff\	.	2.ryy	2.ryy	2.ryy	.	.	2.ryy	2.ryy	2.ryy	2.ryy
.	16d/	.	.	.	.	.	.	.	.	.	.	.	.
.	16g/	.	.	.	.	.	.	.	.	.	.	.	.
.	16d/JJ	.	.	.	.	.	.	.	.	.	.	.	.
*	*rep	*	*	*	*	*	*	*	*	*	*	*	*
.	16B-/LL	.	.	.	.	.	.	.	.	.	.	.	.
.	16d/	.	.	.	.	.	.	.	.	.	.	.	.
.	16g/	.	8dd\	.	.	.	.	.	.	.	.	.	.
.	16d/JJ	.	.	.	.	.	.	.	.	.	.	.	.
*	*Xrep	*	*	*	*	*	*	*	*	*	*	*	*
.	16d/LL	.	16cc/LL	.	.	.	.	.	.	.	.	.	.
.	16f/	.	16bn/	.	.	.	.	.	.	.	.	.	.
.	16g/	.	16a/	.	.	.	.	.	.	.	.	.	.
.	16f/JJ	.	16g/JJ	.	.	.	.	.	.	.	.	.	.
=32	=32	=32	=32	=32	=32	=32	=32	=32	=32	=32	=32	=32	=32
2.ryy	8e/L	.	8cc\L	.	2.ryy	2.ryy	2.ryy	.	.	2.ryy	2.ryy	2.ryy	2.ryy
.	8e/	.	8ccc\J	.	.	.	.	.	.	.	.	.	.
.	8g/	.	8r	.	.	.	.	.	.	.	.	.	.
.	8g/	.	8gg\	.	.	.	.	.	.	.	.	.	.
.	8g/	.	16ff\LL	.	.	.	.	.	.	.	.	.	.
.	.	.	16ee\	.	.	.	.	.	.	.	.	.	.
.	8g/J	.	16cc\	.	.	.	.	.	.	.	.	.	.
.	.	.	16b-\JJ	.	.	.	.	.	.	.	.	.	.
!	!	!	!LO:LB:g=original	!	!	!	!	!	!	!	!	!	!
=33	=33	=33	=33	=33	=33	=33	=33	=33	=33	=33	=33	=33	=33
2.ryy	8a\L	.	16cc\LL	.	2.ryy	2.ryy	2.ryy	1.r	.	2.ryy	2.ryy	2.ryy	2.ryy
.	.	.	16dd\	.	.	.	.	.	.	.	.	.	.
.	8a\	.	16ff\	.	.	.	.	.	.	.	.	.	.
.	.	.	16aa\JJ	.	.	.	.	.	.	.	.	.	.
.	8cc\	.	8gg\L	.	.	.	.	.	.	.	.	.	.
.	8cc\	.	32ffn\LL	.	.	.	.	.	.	.	.	.	.
.	.	.	32ee\	.	.	.	.	.	.	.	.	.	.
.	.	.	32dd\	.	.	.	.	.	.	.	.	.	.
.	.	.	32ccn\JJJ	.	.	.	.	.	.	.	.	.	.
.	8bn\	.	4ddT\	.	.	.	.	.	.	.	.	.	.
.	8b\J	.	.	.	.	.	.	.	.	.	.	.	.
=34	=34	=34	=34	=34	=34	=34	=34	=34	=34	=34	=34	=34	=34
2.ryy	8cc\L	.	8cc\L	.	2.ryy	2.ryy	2.ryy	.	.	2.ryy	2.ryy	2.ryy	2.ryy
.	8g\J	.	8g\J	.	.	.	.	.	.	.	.	.	.
.	4c/	.	4c/	.	.	.	.	.	.	.	.	.	.
.	4r	.	4r	.	.	.	.	.	.	.	.	.	.
=35	=35	=35	=35	=35	=35	=35	=35	=35	=35	=35	=35	=35	=35
!	!	!LO:DY:a:t=p.	!	!LO:DY:a:t=p.:rj	!	!	!	!	!	!	!	!	!
2.ryy	16G/LL	p	4.ccc\	p	2.ryy	2.ryy	2.ryy	4.cc\	Cru-	2.ryy	2.ryy	2.ryy	2.ryy
.	16c/	.	.	.	.	.	.	.	.	.	.	.	.
.	16e/	.	.	.	.	.	.	.	.	.	.	.	.
.	16c/JJ	.	.	.	.	.	.	.	.	.	.	.	.
*	*rep	*	*	*	*	*	*	*	*	*	*	*	*
.	16G/LL	.	.	.	.	.	.	.	.	.	.	.	.
.	16c/	.	.	.	.	.	.	.	.	.	.	.	.
.	16e/	.	16gg\LL	.	.	.	.	8g\	-ti	.	.	.	.
.	16c/JJ	.	16aa\JJ	.	.	.	.	.	.	.	.	.	.
*	*Xrep	*	*	*	*	*	*	*	*	*	*	*	*
*	*rep	*	*	*	*	*	*	*	*ij	*	*	*	*
.	16G/LL	.	8gg\L	.	.	.	.	8cc\L	Cru-	.	.	.	.
.	16c/	.	.	.	.	.	.	.	.	.	.	.	.
.	16e/	.	16gg\L	.	.	.	.	8ee\J	-ti-	.	.	.	.
*	*	*	*	*	*	*	*	*	*Xij	*	*	*	*
.	16c/JJ	.	16ee\JJ	.	.	.	.	.	.	.	.	.	.
*	*Xrep	*	*	*	*	*	*	*	*	*	*	*	*
=36	=36	=36	=36	=36	=36	=36	=36	=36	=36	=36	=36	=36	=36
.	.	.	8qqgg/	.	.	.	.	.	.	.	.	.	.
2.ryy	16G/LL	.	8ff\L	.	2.ryy	2.ryy	2.ryy	8ff\L	-fi-	2.ryy	2.ryy	2.ryy	2.ryy
.	16Bn/	.	.	.	.	.	.	.	.	.	.	.	.
.	16d/	.	16ff\L	.	.	.	.	8dd\J	.	.	.	.	.
.	16B/JJ	.	16dd\JJ	.	.	.	.	.	.	.	.	.	.
!	!LO:LB:g=original	!	!	!	!	!	!	!	!	!	!	!	!
=-	=-	=-	=-	=-	=-	=-	=-	=-	=-	=-	=-	=-	=-
.	16G/LL	.	4ee\	.	.	.	.	4ee\	-xus	.	.	.	.
.	16c/	.	.	.	.	.	.	.	.	.	.	.	.
.	16e/	.	.	.	.	.	.	.	.	.	.	.	.
.	16c/JJ	.	.	.	.	.	.	.	.	.	.	.	.
*	*rep	*	*	*	*	*	*	*	*	*	*	*	*
.	16G/LL	.	8r	.	.	.	.	4r	.	.	.	.	.
.	16c/	.	.	.	.	.	.	.	.	.	.	.	.
.	16e/	.	8cc\	.	.	.	.	.	.	.	.	.	.
.	16c/JJ	.	.	.	.	.	.	.	.	.	.	.	.
*	*Xrep	*	*	*	*	*	*	*	*	*	*	*	*
=37	=37	=37	=37	=37	=37	=37	=37	=37	=37	=37	=37	=37	=37
2.ryy	16A/LL	.	4.a/	.	2.ryy	2.ryy	2.ryy	4.a\	e-	2.ryy	2.ryy	2.ryy	2.ryy
.	16c/	.	.	.	.	.	.	.	.	.	.	.	.
.	16f/	.	.	.	.	.	.	.	.	.	.	.	.
.	16c/JJ	.	.	.	.	.	.	.	.	.	.	.	.
*	*rep	*	*	*	*	*	*	*	*	*	*	*	*
.	16A/LL	.	.	.	.	.	.	.	.	.	.	.	.
.	16c/	.	.	.	.	.	.	.	.	.	.	.	.
.	16f/	.	8cc\L	.	.	.	.	8cc\	-ti-	.	.	.	.
.	16c/JJ	.	.	.	.	.	.	.	.	.	.	.	.
*	*Xrep	*	*	*	*	*	*	*	*	*	*	*	*
*	*rep	*	*	*	*	*	*	*	*	*	*	*	*
.	16A/LL	.	8ee\	.	.	.	.	8ff\	-am	.	.	.	.
.	16c/	.	.	.	.	.	.	.	.	.	.	.	.
.	16f/	.	8aa\J	.	.	.	.	8aa\	pro	.	.	.	.
.	16c/JJ	.	.	.	.	.	.	.	.	.	.	.	.
*	*Xrep	*	*	*	*	*	*	*	*	*	*	*	*
=38	=38	=38	=38	=38	=38	=38	=38	=38	=38	=38	=38	=38	=38
2.ryy	16G/LL	.	8gg\L	.	2.ryy	2.ryy	2.ryy	8gg\L	no-	2.ryy	2.ryy	2.ryy	2.ryy
.	16c/	.	.	.	.	.	.	.	.	.	.	.	.
.	16e/	.	8ee\J	.	.	.	.	8ee\J	.	.	.	.	.
.	16c/JJ	.	.	.	.	.	.	.	.	.	.	.	.
!	!	!	!	!	!	!	!	!LO:LB:g=original	!	!	!	!	!
=-	=-	=-	=-	=-	=-	=-	=-	=-	=-	=-	=-	=-	=-
*	*rep	*	*	*	*	*	*	*	*	*	*	*	*
.	16G/LL	.	4cc\	.	.	.	.	4cc\	-bis	.	.	.	.
.	16c/	.	.	.	.	.	.	.	.	.	.	.	.
.	16e/	.	.	.	.	.	.	.	.	.	.	.	.
.	16c/JJ	.	.	.	.	.	.	.	.	.	.	.	.
*	*Xrep	*	*	*	*	*	*	*	*	*	*	*	*
*	*rep	*	*	*	*	*	*	*	*	*	*	*	*
.	16G/LL	.	8r	.	.	.	.	8r	.	.	.	.	.
.	16c/	.	.	.	.	.	.	.	.	.	.	.	.
.	16e/	.	8a/	.	.	.	.	8a\	sub	.	.	.	.
.	16c/JJ	.	.	.	.	.	.	.	.	.	.	.	.
*	*Xrep	*	*	*	*	*	*	*	*	*	*	*	*
!	!	!	!LO:LB:g=original	!	!	!	!	!	!	!	!	!	!
=39	=39	=39	=39	=39	=39	=39	=39	=39	=39	=39	=39	=39	=39
2.ryy	16A/LL	.	4.a/	.	2.ryy	2.ryy	2.ryy	4.a\	Pon-	2.ryy	2.ryy	2.ryy	2.ryy
.	16c#X/	.	.	.	.	.	.	.	.	.	.	.	.
.	16e/	.	.	.	.	.	.	.	.	.	.	.	.
.	16c#/JJ	.	.	.	.	.	.	.	.	.	.	.	.
*	*rep	*	*	*	*	*	*	*	*	*	*	*	*
.	16A/LL	.	.	.	.	.	.	.	.	.	.	.	.
.	16c#/	.	.	.	.	.	.	.	.	.	.	.	.
.	16e/	.	8cc#X\L	.	.	.	.	8cc#X\	-ti-	.	.	.	.
.	16c#/JJ	.	.	.	.	.	.	.	.	.	.	.	.
*	*Xrep	*	*	*	*	*	*	*	*	*	*	*	*
*	*rep	*	*	*	*	*	*	*	*	*	*	*	*
.	16A/LL	.	8ee\	.	.	.	.	8ee\	-o	.	.	.	.
.	16c#/	.	.	.	.	.	.	.	.	.	.	.	.
.	16e/	.	8gg\J	.	.	.	.	8gg\	Pi-	.	.	.	.
.	16c#/JJ	.	.	.	.	.	.	.	.	.	.	.	.
*	*Xrep	*	*	*	*	*	*	*	*	*	*	*	*
=40	=40	=40	=40	=40	=40	=40	=40	=40	=40	=40	=40	=40	=40
2.ryy	16A/LL	.	8.ff\L	.	2.ryy	2.ryy	2.ryy	8ff\L	-la-	2.ryy	2.ryy	2.ryy	2.ryy
.	16d/	.	.	.	.	.	.	.	.	.	.	.	.
.	16f/	.	.	.	.	.	.	8ee\J	.	.	.	.	.
.	16d/JJ	.	16ee\Jk	.	.	.	.	.	.	.	.	.	.
*	*rep	*	*	*	*	*	*	*	*	*	*	*	*
.	16A/LL	.	8dd\L	.	.	.	.	4dd\	-to	.	.	.	.
.	16d/	.	.	.	.	.	.	.	.	.	.	.	.
.	16f/	.	8ff\	.	.	.	.	.	.	.	.	.	.
.	16d/JJ	.	.	.	.	.	.	.	.	.	.	.	.
*	*Xrep	*	*	*	*	*	*	*	*	*	*	*	*
*	*rep	*	*	*	*	*	*	*	*	*	*	*	*
.	16A/LL	.	8ff\	.	.	.	.	4r	.	.	.	.	.
.	16d/	.	.	.	.	.	.	.	.	.	.	.	.
.	16f/	.	8ff\J	.	.	.	.	.	.	.	.	.	.
.	16d/JJ	.	.	.	.	.	.	.	.	.	.	.	.
*	*Xrep	*	*	*	*	*	*	*	*	*	*	*	*
!	!LO:LB:g=original	!	!	!	!	!	!	!	!	!	!	!	!
=41	=41	=41	=41	=41	=41	=41	=41	=41	=41	=41	=41	=41	=41
2.ryy	16c/LL	.	8ff\L	.	2.ryy	2.ryy	2.ryy	8ff\L	paſ-	2.ryy	2.ryy	2.ryy	2.ryy
.	16f/	.	.	.	.	.	.	.	.	.	.	.	.
.	16a/	.	8ee-X\	.	.	.	.	8ee-X\J	.	.	.	.	.
.	16f/JJ	.	.	.	.	.	.	.	.	.	.	.	.
*	*rep	*	*	*	*	*	*	*	*	*	*	*	*
.	16c/LL	.	8ee-\	.	.	.	.	4ee-\	-sus	.	.	.	.
.	16f/	.	.	.	.	.	.	.	.	.	.	.	.
.	16a/	.	8cc\J	.	.	.	.	.	.	.	.	.	.
.	16f/JJ	.	.	.	.	.	.	.	.	.	.	.	.
*	*Xrep	*	*	*	*	*	*	*	*	*	*	*	*
*	*rep	*	*	*	*	*	*	*	*	*	*	*	*
!	!	!	!LO:TX:a:t=P:problem:mixedbeam	!	!	!	!	!	!	!	!	!	!
.	16c/LL	.	8f/L	.	.	.	.	8r	.	.	.	.	.
.	16f/	.	.	.	.	.	.	.	.	.	.	.	.
.	16a/	.	8ee-\J	.	.	.	.	8ee-\	pas-	.	.	.	.
.	16f/JJ	.	.	.	.	.	.	.	.	.	.	.	.
*	*Xrep	*	*	*	*	*	*	*	*	*	*	*	*
=42	=42	=42	=42	=42	=42	=42	=42	=42	=42	=42	=42	=42	=42
!	!	!	!LO:SIC:v:s=16ee-\LL	!	!	!	!	!	!	!	!	!	!
2.ryy	16B-/LL	.	16ee\LL	.	2.ryy	2.ryy	2.ryy	16ee-X\LL	.	2.ryy	2.ryy	2.ryy	2.ryy
.	16d/	.	16dd\	.	.	.	.	16dd\	.	.	.	.	.
.	16f/	.	16cc\	.	.	.	.	16cc\	.	.	.	.	.
.	16d/JJ	.	16dd\JJ	.	.	.	.	16dd\JJ	.	.	.	.	.
*	*rep	*	*	*	*	*	*	*	*	*	*	*	*
.	16B-/LL	.	8dd\L	.	.	.	.	8dd\	-sus	.	.	.	.
.	16d/	.	.	.	.	.	.	.	.	.	.	.	.
.	16f/	.	32ff\LL	.	.	.	.	4ff\	et	.	.	.	.
.	.	.	32ee\	.	.	.	.	.	.	.	.	.	.
.	16d/JJ	.	32ff\	.	.	.	.	.	.	.	.	.	.
.	.	.	32gg\JJJ	.	.	.	.	.	.	.	.	.	.
*	*Xrep	*	*	*	*	*	*	*	*	*	*	*	*
*	*rep	*	*	*	*	*	*	*	*	*	*	*	*
.	16B-/LL	.	8ff\L	.	.	.	.	.	.	.	.	.	.
.	16d/	.	.	.	.	.	.	.	.	.	.	.	.
.	16f/	.	8ff\J	.	.	.	.	8ff\	se-	.	.	.	.
.	16d/JJ	.	.	.	.	.	.	.	.	.	.	.	.
*	*Xrep	*	*	*	*	*	*	*	*	*	*	*	*
=43	=43	=43	=43	=43	=43	=43	=43	=43	=43	=43	=43	=43	=43
*	*	*	*	*	*	*	*	*2\right	*	*	*	*	*
2.ryy	16d/LL	.	8g\ 8ff	.	2.ryy	2.ryy	2.ryy	2ff\	-pul-	2.ryy	2.ryy	2.ryy	2.ryy
.	16f/	.	.	.	.	.	.	.	.	.	.	.	.
.	16g/	.	4g\ 4ff	.	.	.	.	.	.	.	.	.	.
.	16f/JJ	.	.	.	.	.	.	.	.	.	.	.	.
*	*rep	*	*	*	*	*	*	*	*	*	*	*	*
.	16d/LL	.	.	.	.	.	.	.	.	.	.	.	.
.	16f/	.	.	.	.	.	.	.	.	.	.	.	.
.	16g/	.	4g\ 4ff	.	.	.	.	.	.	.	.	.	.
.	16f/JJ	.	.	.	.	.	.	.	.	.	.	.	.
*	*Xrep	*	*	*	*	*	*	*	*	*	*	*	*
*	*rep	*	*	*	*	*	*	*	*	*	*	*	*
.	16d/LL	.	.	.	.	.	.	16gg\LL	-tus	.	.	.	.
.	16f/	.	.	.	.	.	.	16ff\	.	.	.	.	.
.	16g/	.	8g\ 8ff	.	.	.	.	16een\	.	.	.	.	.
.	16f/JJ	.	.	.	.	.	.	16ff\JJ	.	.	.	.	.
*	*Xrep	*	*	*	*	*	*	*	*	*	*	*	*
!	!	!	!	!	!	!	!	!LO:LB:g=original	!	!	!	!	!
=44	=44	=44	=44	=44	=44	=44	=44	=44	=44	=44	=44	=44	=44
2.ryy	8g/L	.	4ee\	.	2.ryy	2.ryy	2.ryy	4ee\	est	2.ryy	2.ryy	2.ryy	2.ryy
.	8c/	.	.	.	.	.	.	.	.	.	.	.	.
.	8c/	.	8r	.	.	.	.	4r	.	.	.	.	.
.	8c/	.	8cc\L	.	.	.	.	.	.	.	.	.	.
.	8c/	.	8cc\	.	.	.	.	4r	.	.	.	.	.
.	8c/J	.	8cc\J	.	.	.	.	.	.	.	.	.	.
!	!	!	!LO:LB:g=original	!	!	!	!	!	!	!	!	!	!
=45	=45	=45	=45	=45	=45	=45	=45	=45	=45	=45	=45	=45	=45
*	*tremolo	*	*	*	*	*	*	*	*	*	*	*	*
2.ryy	8c/L	.	8.b-/L	.	2.ryy	2.ryy	2.ryy	8.b-\L	paſ-	2.ryy	2.ryy	2.ryy	2.ryy
.	8c/	.	.	.	.	.	.	.	.	.	.	.	.
.	.	.	16a/Jk	.	.	.	.	16a\Jk	.	.	.	.	.
.	8c/	.	8g/L	.	.	.	.	4g\	-sus	.	.	.	.
.	8c/	.	8g/	.	.	.	.	.	.	.	.	.	.
.	8c/	.	8a/	.	.	.	.	8r	.	.	.	.	.
*	*	*	*	*	*	*	*	*	*ij	*	*	*	*
.	8c/J	.	8b-/J	.	.	.	.	8b-\	paſ-	.	.	.	.
=46	=46	=46	=46	=46	=46	=46	=46	=46	=46	=46	=46	=46	=46
2.ryy	8c/L	.	16b-\LL	.	2.ryy	2.ryy	2.ryy	16b-\LL	.	2.ryy	2.ryy	2.ryy	2.ryy
.	.	.	16a\	.	.	.	.	16a\	.	.	.	.	.
.	8c/	.	16dd\	.	.	.	.	16dd\	.	.	.	.	.
.	.	.	16cc\JJ	.	.	.	.	16cc\JJ	.	.	.	.	.
.	8c/	.	8cc\L	.	.	.	.	4cc\	-sus	.	.	.	.
*	*	*	*	*	*	*	*	*	*Xij	*	*	*	*
.	8c/	.	8ff\	.	.	.	.	.	.	.	.	.	.
.	8c/	.	8cc\	.	.	.	.	4r	.	.	.	.	.
.	8c/J	.	8cc\J	.	.	.	.	.	.	.	.	.	.
=47	=47	=47	=47	=47	=47	=47	=47	=47	=47	=47	=47	=47	=47
2.ryy	8c/L	.	8.b-/L	.	2.ryy	2.ryy	2.ryy	4r	.	2.ryy	2.ryy	2.ryy	2.ryy
.	8c/	.	.	.	.	.	.	.	.	.	.	.	.
.	.	.	16a/Jk	.	.	.	.	.	.	.	.	.	.
.	8c/	.	8g/L	.	.	.	.	8r	.	.	.	.	.
.	8c/	.	8g/	.	.	.	.	8g\L	et	.	.	.	.
.	8c/	.	8a/	.	.	.	.	8a\J	.	.	.	.	.
.	8c/J	.	8b-/J	.	.	.	.	8b-\	se-	.	.	.	.
*	*Xtremolo	*	*	*	*	*	*	*	*	*	*	*	*
=48	=48	=48	=48	=48	=48	=48	=48	=48	=48	=48	=48	=48	=48
!	!	!	!LO:TX:a:t=P:problem:mixedbeam	!	!	!	!	!	!	!	!	!	!
2.ryy	8c/L	.	16a/LL	.	2.ryy	2.ryy	2.ryy	16a\LL	-pul-	2.ryy	2.ryy	2.ryy	2.ryy
.	.	.	16aa\	.	.	.	.	16aa\	.	.	.	.	.
.	8f/	.	16gg\	.	.	.	.	16gg\	.	.	.	.	.
.	.	.	16ff\JJ	.	.	.	.	16ff\JJ	.	.	.	.	.
.	8f/	.	16ee\LL	.	.	.	.	16ee\LL	.	.	.	.	.
.	.	.	16ff\	.	.	.	.	16ff\	.	.	.	.	.
.	8f/	.	16gg\	.	.	.	.	16gg\	.	.	.	.	.
.	.	.	16ff\JJ	.	.	.	.	16ff\JJ	.	.	.	.	.
.	8f/	.	16ff\LL	.	.	.	.	16ff\LL	-tus	.	.	.	.
.	.	.	16ee-X\	.	.	.	.	16ee-X\	.	.	.	.	.
.	8f/J	.	16dd\	.	.	.	.	16dd\	.	.	.	.	.
.	.	.	16ee-\JJ	.	.	.	.	16ee-\JJ	.	.	.	.	.
!	!LO:LB:g=original	!	!	!	!	!	!	!	!	!	!	!	!
=49	=49	=49	=49	=49	=49	=49	=49	=49	=49	=49	=49	=49	=49
2.ryy	8d/L	.	16dd/LL	.	2.ryy	2.ryy	2.ryy	4dd\	est	2.ryy	2.ryy	2.ryy	2.ryy
.	.	.	16g/	.	.	.	.	.	.	.	.	.	.
.	8d/	.	16fn/	.	.	.	.	.	.	.	.	.	.
.	.	.	16a/JJ	.	.	.	.	.	.	.	.	.	.
.	8d/	.	16g/LL	.	.	.	.	4r	.	.	.	.	.
.	.	.	16b-/	.	.	.	.	.	.	.	.	.	.
.	8d/	.	16a/	.	.	.	.	.	.	.	.	.	.
.	.	.	16cc/JJ	.	.	.	.	.	.	.	.	.	.
!	!	!	!LO:LB:g=original	!	!	!	!	!LO:LB:g=original	!	!	!	!	!
=-	=-	=-	=-	=-	=-	=-	=-	=-	=-	=-	=-	=-	=-
.	8d/	.	16b-\LL	.	.	.	.	8dd\	et	.	.	.	.
.	.	.	16dd\JJ	.	.	.	.	.	.	.	.	.	.
.	8d/J	.	32cc\LLL	.	.	.	.	32cc\LLL	se-	.	.	.	.
.	.	.	32b-\	.	.	.	.	32b-\	.	.	.	.	.
.	.	.	32a\	.	.	.	.	32a\	.	.	.	.	.
.	.	.	32g\JJJ	.	.	.	.	32g\JJJ	.	.	.	.	.
=50	=50	=50	=50	=50	=50	=50	=50	=50	=50	=50	=50	=50	=50
2.ryy	8A/L	.	8.f/L	.	2.ryy	2.ryy	2.ryy	8f/L	-pul-	2.ryy	2.ryy	2.ryy	2.ryy
.	8f/	.	.	.	.	.	.	8g/J	.	.	.	.	.
.	.	.	16g/Jk	.	.	.	.	.	.	.	.	.	.
.	8f/	.	2g/	.	.	.	.	4.g/	.	.	.	.	.
.	8f/	.	.	.	.	.	.	.	.	.	.	.	.
.	8e/	.	.	.	.	.	.	.	.	.	.	.	.
.	8e/J	.	.	.	.	.	.	8g/	-tus	.	.	.	.
=51	=51	=51	=51	=51	=51	=51	=51	=51	=51	=51	=51	=51	=51
!	!	!LO:DY:a:t=pianissimo	!	!LO:DY:a:t=p.	!	!	!	!	!	!	!	!	!
2.ryy	8f/	pp	4f/	p	2.ryy	2.ryy	2.ryy	4f/	est	2.ryy	2.ryy	2.ryy	2.ryy
.	4f/	.	.	.	.	.	.	.	.	.	.	.	.
.	.	.	8r	.	.	.	.	4r	.	.	.	.	.
!	!	!	!LO:TX:a:t=P:problem:mixedbeam	!	!	!	!	!	!	!	!	!	!
.	4f/	.	8f/L	.	.	.	.	.	.	.	.	.	.
.	.	.	8ee-X\	.	.	.	.	4r	.	.	.	.	.
.	8f/	.	8cc\J	.	.	.	.	.	.	.	.	.	.
=52	=52	=52	=52	=52	=52	=52	=52	=52	=52	=52	=52	=52	=52
2.ryy	8f/	.	8cc\L	.	2.ryy	2.ryy	2.ryy	0.r	.	2.ryy	2.ryy	2.ryy	2.ryy
.	4f/	.	8dd\J	.	.	.	.	.	.	.	.	.	.
.	.	.	8r	.	.	.	.	.	.	.	.	.	.
.	4f/	.	8ff\L	.	.	.	.	.	.	.	.	.	.
.	.	.	8ee-X\	.	.	.	.	.	.	.	.	.	.
.	8f/	.	8cc\J	.	.	.	.	.	.	.	.	.	.
=53	=53	=53	=53	=53	=53	=53	=53	=53	=53	=53	=53	=53	=53
2.ryy	8f/	.	8cc#X\L	.	2.ryy	2.ryy	2.ryy	.	.	2.ryy	2.ryy	2.ryy	2.ryy
.	4f/	.	8dd\J	.	.	.	.	.	.	.	.	.	.
.	.	.	8r	.	.	.	.	.	.	.	.	.	.
.	4f/	.	8dd\L	.	.	.	.	.	.	.	.	.	.
.	.	.	8ff\	.	.	.	.	.	.	.	.	.	.
.	8f/	.	8dd\J	.	.	.	.	.	.	.	.	.	.
=54	=54	=54	=54	=54	=54	=54	=54	=54	=54	=54	=54	=54	=54
2.ryy	4f/	.	4ccn\	.	2.ryy	2.ryy	2.ryy	.	.	2.ryy	2.ryy	2.ryy	2.ryy
.	4f/	.	4a/	.	.	.	.	.	.	.	.	.	.
.	4f/	.	4a/	.	.	.	.	.	.	.	.	.	.
=55	=55	=55	=55	=55	=55	=55	=55	=55	=55	=55	=55	=55	=55
2.ryy	2f/	.	2a/	.	2.ryy	2.ryy	2.ryy	.	.	2.ryy	2.ryy	2.ryy	2.ryy
.	4r	.	4r	.	.	.	.	.	.	.	.	.	.
!	!LO:LB:g=original	!	!LO:LB:g=original	!	!	!	!	!LO:PB:g=original	!	!	!	!	!
==	==	==	==	==	==	==	==	==	==	==	==	==	==
*-	*-	*-	*-	*-	*-	*-	*-	*-	*-	*-	*-	*-	*-
!!!system-decoration: [(s1,s2)][(s3,s4)][(s5,s6,s7,s8)][(s9,s10)]s11
!!!ENC: Berenika Jozajtis
!!!END: 2021-11-22
!!!ENC: Marta Chmielewska
!!!END: 2021-12-01
